images/github.svg

<svg height="38" viewBox="0 0 38 38" width="38" xmlns="http://www.w3.org/2000/svg">
  <style>
    path { fill: currentColor; }
    @media (prefers-color-scheme: dark) {
        path { fill: white; }
    }
  </style>
  <title>GitHub</title>
  <path d="m18.9982504 0c-10.4905614 0-18.9982504 8.72179895-18.9982504 19.4814349 0 8.6069913 5.44356794 15.9080447 12.9936462 18.4840429.9506124.179387 1.2970318-.4221576 1.2970318-.9387923 0-.4616227-.0163295-1.6874343-.0256607-3.3126811-5.28493811 1.1767791-6.40001224-2.6118756-6.40001224-2.6118756-.86429908-2.2507097-2.11000951-2.8498625-2.11000951-2.8498625-1.72509899-1.2078728.1306363-1.1839546.1306363-1.1839546 1.90705669.1375301 2.91015685 2.0079392 2.91015685 2.0079392 1.6947727 2.9766293 4.4474662 2.1167673 5.5298812 1.6180713.1726265-1.2581013.6636791-2.1167673 1.206053-2.6035042-4.2188526-.4915206-8.65465485-2.163408-8.65465485-9.6283016 0-2.1263346.74066116-3.8663891 1.95604531-5.227339-.19595445-.4927164-.84796956-2.4743455.18662328-5.15558413 0 0 1.59446266-.52381022 5.22428556 1.99717593 1.5151478-.43292075 3.1411032-.64818523 4.756561-.65655662 1.6142914.00837139 3.2390804.22363587 4.756561.65655662 3.6274901-2.52098615 5.21962-1.99717593 5.21962-1.99717593 1.0369256 2.68123863.3849105 4.66286773.1901224 5.15558413 1.217717 1.3609499 1.9525462 3.1010044 1.9525462 5.227339 0 7.4840282-4.4428006 9.1308015-8.6744836 9.6127547.681175.6015446 1.2888671 1.7902829 1.2888671 3.6080718 0 2.6035042-.0233279 4.7047247-.0233279 5.3433426 0 .5214184.3429202 1.1277467 1.3063629.9375964 7.5442463-2.5819778 12.9831487-9.8782476 12.9831487-18.482847 0-10.75963595-8.507689-19.4814349-19.0017496-19.4814349" fill="#151513" fill-rule="evenodd"/>
</svg>

<?xml version="1.0" encoding="UTF-8" standalone="no"?>
<svg width="38px" height="38px" viewBox="0 0 38 38" version="1.1" xmlns="http://www.w3.org/2000/svg" xmlns:xlink="http://www.w3.org/1999/xlink">
    <g stroke="none" stroke-width="1" fill="none" fill-rule="evenodd">
        <path d="M18.9982504,0 C8.507689,0 0,8.72179895 0,19.4814349 C0,28.0884262 5.44356794,35.3894796 12.9936462,37.9654778 C13.9442586,38.1448648 14.290678,37.5433202 14.290678,37.0266855 C14.290678,36.5650628 14.2743485,35.3392512 14.2650173,33.7140044 C8.98007919,34.8907835 7.86500506,31.1021288 7.86500506,31.1021288 C7.00070598,28.8514191 5.75499555,28.2522663 5.75499555,28.2522663 C4.02989656,27.0443935 5.88563185,27.0683117 5.88563185,27.0683117 C7.79268854,27.2058418 8.7957887,29.0762509 8.7957887,29.0762509 C10.4905614,32.0528802 13.2432549,31.1930182 14.3256699,30.6943222 C14.4982964,29.4362209 14.989349,28.5775549 15.5317229,28.090818 C11.3128703,27.5992974 6.87706805,25.92741 6.87706805,18.4625164 C6.87706805,16.3361818 7.61772921,14.5961273 8.83311336,13.2351774 C8.63715891,12.742461 7.9851438,10.7608319 9.01973664,8.07959327 C9.01973664,8.07959327 10.6141993,7.55578305 14.2440222,10.0767692 C15.75917,9.64384845 17.3851254,9.42858397 19.0005832,9.42021258 C20.6148746,9.42858397 22.2396636,9.64384845 23.7571442,10.0767692 C27.3846343,7.55578305 28.9767642,8.07959327 28.9767642,8.07959327 C30.0136898,10.7608319 29.3616747,12.742461 29.1668866,13.2351774 C30.3846036,14.5961273 31.1194328,16.3361818 31.1194328,18.4625164 C31.1194328,25.9465446 26.6766322,27.5933179 22.4449492,28.0752711 C23.1261242,28.6768157 23.7338163,29.865554 23.7338163,31.6833429 C23.7338163,34.2868471 23.7104884,36.3880676 23.7104884,37.0266855 C23.7104884,37.5481039 24.0534086,38.1544322 25.0168513,37.9642819 C32.5610976,35.3823041 38,28.0860343 38,19.4814349 C38,8.72179895 29.492311,0 18.9982504,0" fill="#151513"></path>
    </g>
</svg>
